X: 323
T: Miss Cumine of Logie's Strathspey
C: by Wm Christie
R: strathspey
B: William Christie's "A Collection of Strathspeys, Reels, Hornpipes, Waltzes, &c." p.32 #3
S: https://digital.nls.uk/special-collections-of-printed-music/archive/120545033
Z: 2022 John Chambers <jc:trillian.mit.edu>
M: C
L: 1/8
K: G
%%slurgraces yes
%%graceslurs yes
% = = = = = = = = = =
V: 1 staves=2
d |\
B<G-TG>D (F/E/).D/.C/ ~B,2 | G,>DB,>D {F}G2G>B |\
e<A-A>B (c/B/).A/.G/ ~F2 | D>AF>A {F}G2G :|\
B |\
G>dB>g (f/e/).d/.c/ B2 | G>dB>g d2Td>B |
G>dB>g (f/e/).d/.c/ ~B2 | A>a f>a {a}g2~g>d ||\
B>gd>g (f/e/).d/.c/ ~B2 | G>dB>g ~d2d<g |\
e>cA>d (c/B/).A/.G/ ~F2 | D>AF>A {F}G2G |]
% = = = = = = = = = =
% Voice 2 preserves the staff layout in the book.
V: 2 clef=bass middle=d
z |\
g2B2 c2G2 | G2G2 B2G2 | c2d2 e2d2 | D2d2 G2g :| z | g2g2 [d2a2]g2 | [g2b2]g2 b2g2 |
g2g2 d2g2 | d2d'2 g2g2 || g2b2 a2g2 | g2g2 g2B2 | c2d2 e2d2 | [d2f2]D2 G2G |]
% = = = = = = = = = =
